X:24
T: Nun adje, jetzt muá ich reiten fort (Band 1), S.  71
N: P0798
O: Lothringen
S: PINCK, Louis: Verklingende Weisen, Bd 1, Metz 1928]
R: Abschied, Tod]
M: 4/4
L: 1/16
K: G
D3D | B6A2c2B2A2G2 | A6G2F4
D3F | A4A2D2c4B3A | A3GG4z4
G2F2 | E4E4G4F2E2 | D3FF3Ad4c2
A2 | G6B2d4c2A2 | A4G4z4

